src/assets/icons/sqlite-icon-edited.svg

<?xml version="1.0" encoding="UTF-8"?>
<svg viewBox="0 0 922 709" xmlns="http://www.w3.org/2000/svg">
<path d="m162.66 428.9c-0.046 11.267 0.872-27.884 2.04-25.89 8.833 15.082 48.549 36.767 104.66-24.615 70.907-77.573 171.08-153.03 242.01-182.29 47.023-19.399 57.179-27.409 21.517-16.971-36.045 10.55-117.52 53.587-165.37 87.349-21.763 15.357-71.306 60.074-110.1 99.371-38.789 39.296-72.999 71.448-76.022 71.448s-5.496-5.211-5.496-11.58c0-22.268 125.16-127.95 226.86-191.57 22.565-14.113 77.606-43.937 122.31-66.274 44.707-22.337 80.142-41.759 78.744-43.159-5.04-5.047-69.479 19.614-125.57 48.056-99.265 50.334-192.3 116.73-273.94 195.51-39.3 37.924-41.581 41.242-41.659 60.607z" fill="#4D6960"/>
<path d="m422.07 307.41c-50.136 23.503-63.919 32.268-60.204 38.286 4.333 7.02 5.435 6.633 67.459-23.679 60.222-29.432 92.036-41.488 128.26-48.603l21.358-4.196-21.818-0.529c-29.285-0.711-85.031 15.272-135.05 38.721z" fill="#4D6960"/>
<path d="m355.59 324.42c-5.159-3.193-25.235 9.94-25.235 16.507 0 2.508 2.921 4.559 6.492 4.559 8.618 0 24.301-17.627 18.743-21.066z" fill="#4D6960"/>
<path d="m276.81 268.4c-5.21 2.791-8.362 6.874-7.005 9.072 3.522 5.705 32.896-1.153 35.253-8.231 2.433-7.307-15.201-7.832-28.248-0.841z" fill="#4D6960"/>
<path d="m571.26 221.61c-18.397 3.684-58.991 23.795-76.113 37.706-7.008 5.694-9.484 9.264-5.502 7.934 3.982-1.331 33.305-11.317 65.162-22.191s64.039-21.077 71.516-22.672c9.462-2.02 13.114-5.42 12.013-11.187-2.226-11.669-81.116-15.334-81.116-3.768 0 5.56 3.487 6.626 14.481 4.424 8.366-1.675 14.48-0.859 14.48 1.933 0 2.658-6.715 6.178-14.921 7.821z" fill="#4D6960"/>
<path d="m229.03 239.23c2.676 5.006 9.675 12.475 15.555 16.599 12.018 8.428 16.543 9.252 20.006 3.641 3.36-5.443-2.433-13.085-14.904-19.659-16.855-8.884-8.141-18.996 25.28-29.331 16.769-5.186 41.15-14.838 54.179-21.449l23.689-12.019-11.14 22.032c-10.531 20.827-11.114 30.452-1.844 30.452 2.255 0 12.021-14.429 21.703-32.065 25.9-47.179 17.041-57.959-24.54-29.862-23.931 16.171-77.609 37.763-93.879 37.763-12.22 0-20.976 21.043-14.105 33.898z" fill="#4D6960"/>
<path d="m645.89 159.68c-16.65 11.896-31.596 23.772-33.212 26.39-5.509 8.925 2.976 4.758 62.9-30.891 32.959-19.609 81.953-44.958 108.88-56.332 38.095-16.095 50.967-23.996 58.054-35.632 9.592-15.75 12.568-39.39 4.316-34.283-2.655 1.6427-4.827 7.0146-4.827 11.938 0 11.593-24.615 32.157-55.339 46.23-93.11 42.652-113.83 53.334-140.77 72.581z" fill="#4D6960"/>
<path d="m426.08 147.16c-8.225 13.248-13.583 27.258-12.001 31.384 4.732 12.348 9.473 8.665 30.916-24.017 11.284-17.199 28.091-36.183 37.348-42.187 30.76-19.95 18.693-31.697-18.353-17.867-23.216 8.6661-78.502 46.847-74.148 51.207 1.266 1.268 13.281-3.265 26.699-10.073l24.397-12.378-14.858 23.931z" fill="#4D6960"/>
<path d="m584.14 82.652c-28.683 21.629-36.911 33.741-28.585 42.078 1.739 1.742 7.713-1.374 13.274-6.924s25.858-20.896 45.105-34.104c33.299-22.849 42.938-37.2 30.258-45.046-14.301-8.8497-112.78 24.186-123.4 41.397-2.421 3.9225-0.487 3.8907 6.988-0.1149 12.082-6.4743 83.306-25.266 85.904-22.665 0.972 0.9741-12.32 12.394-29.539 25.379z" fill="#4D6960"/>
<path d="m729.08 66.498c-3.155-3.1588-99.461 33.821-99.461 38.192 0 2.192 1.629 3.99 3.62 3.994 6.52 0.015 97.842-40.182 95.841-42.186z" fill="#4D6960"/>
<path d="m664.61 8.5384c-8.627 4.7096-15.687 10.701-15.687 13.314 0 2.987 10.305 3.3895 27.755 1.0841 15.264-2.0168 49.16-3.6668 75.323-3.6668h47.569l-21.022-9.2546c-28.783-12.671-91.93-13.49-113.94-1.4765z" fill="#4D6960"/>
<path d="m384.05 696.4c-18.659-12.368-23.664-13.481-50.818-11.298-59.263 4.763-113.99-24.173-121.5-64.24-9.837-52.501 61.699-127.84 121.39-127.84 25.187 0 34.844 9.494 27.059 26.601-4.931 10.838-3.145 13.927 21.575 37.311 14.823 14.022 28.985 30.834 31.472 37.36 6.545 17.182 0.128 46.674-13.749 63.187l-12.023 14.306 10.613 17.194c5.837 9.456 9.727 18.08 8.644 19.164-1.083 1.085-11.283-4.202-22.667-11.748zm-46.348-52.35c-7.29-18.457-8.41-40.013-2.452-47.2 5.503-6.639 7.068-6.574 15.011 0.622 4.877 4.419 10.255 15.442 11.951 24.496 3.179 16.963 9.656 18.848 18.194 5.295 5.61-8.904-5.924-39.68-24.378-65.048-6.156-8.461-11.192-18.859-11.192-23.107 0-12.239-13.084-14.1-36.412-5.18-23.803 9.102-63.447 45.659-67.636 62.369-7.671 30.602 25.882 55.905 74.397 56.105 22.702 0.093 25.45-0.926 22.517-8.352zm110.58 40.781l-14.146-12.21 0.374-71.675c0.205-39.421 1.867-77.622 3.693-84.891 6.238-24.834 45.421-23.248 43.166 1.747-0.569 6.308-4.136 36.479-7.925 67.047-3.79 30.567-5.785 57.412-4.434 59.655s11.434 2.666 22.406 0.941c51.344-8.076 79.268-8.21 94.251-0.452 16.647 8.619 16.966 9.292 10.301 21.762-6.415 12.001-15.942 15.267-58.056 19.901-19.911 2.19-45.04 5.423-55.843 7.184-16.692 2.72-21.766 1.368-33.787-9.009zm392.5 4.466c-22.488-8.271-51.878-30.285-51.878-38.86 0-3.526 2.993-8.898 6.651-11.938s7.621-17.242 8.807-31.56 5.845-31.67 10.354-38.56c6.92-10.574 11.777-12.527 31.147-12.527 12.622 0 33.294 7.255 33.294 7.255 28.275 19.829 12.457 82.548-24.127 95.666-12.902 4.627 3.164 9.774 32.628 10.454 36.139 0.833 41.683 3.809 25.955 13.931-16.953 10.91-51.857 13.852-72.831 6.139zm12.872-68.252c6.064-9.265 6.725-14.403 2.799-21.747-2.827-5.289-7.159-9.617-9.627-9.617-6.617 0-14.481 16.888-14.481 31.096 0 15.974 10.941 16.112 21.309 0.268zm-810.9 58.587c-18.702-8.719-27.054-16.262-35.083-31.684-12.771-24.532-8.9626-34.386 6.7352-17.427 10.473 11.315 14.702 12.321 51.803 12.321 41.084 0 80.112-9.352 90.294-21.638 17.446-21.046-21.726-54.933-83.857-72.543-41.965-11.895-45.724-22.561-14.105-40.025 25.829-14.265 78.935-17.419 90.982-5.403 7.188 7.171 5.448 8.059-21.847 11.151-16.311 1.848-34.397 5.2-40.19 7.449-9.4006 3.65-7.6794 5.364 16.015 15.95 14.601 6.523 34.149 14.35 43.441 17.392 37.204 12.183 54.906 39.743 49.446 76.985-3.143 21.446-19.167 36.682-51.196 48.681-36.672 13.738-71.254 13.33-102.44-1.209zm693.93 1.725c-16.919-10.328-31.435-37.174-37.277-68.944-3.224-17.53-3.774-17.985-12.358-10.207-19.633 17.789-33.109-17.548-13.992-36.689 5.309-5.316 12.739-9.665 16.51-9.665 6.98 0 9.621-8.603 15.25-49.671 2.112-15.411 6.186-24.709 12.25-27.959 12.185-6.529 29.752 2.698 26.44 13.889-1.329 4.49-3.807 14.688-5.508 22.662-1.7 7.974-4.061 18.113-5.246 22.53-2.278 8.488 2.765 10.19 47.794 16.132 26.852 3.543 26.368 9.508-1.127 13.91-31.501 5.044-53.268 17.563-53.268 30.636 0 20.485 12.628 42.177 35.457 60.907 12.355 10.137 22.464 21.547 22.464 25.356 0 10.391-28.481 8.656-47.389-2.887zm-114.33-15.324c-11.019-26.948-15.545-88.059-7.263-98.05 16.168-19.505 34.284 4.869 37.46 50.402 4.19 60.071-13.624 88.181-30.197 47.648zm-15-141.26c-4.806-12.54 1.93-22.904 13.79-21.218 7.977 1.134 10.881 4.772 10.881 13.629 0 8.858-2.904 12.495-10.881 13.63-6.528 0.927-12.046-1.49-13.79-6.041z" fill="#4D6960"/>
</svg>

<svg width="922" height="709" viewBox="0 0 922 709" fill="none" xmlns="http://www.w3.org/2000/svg">
<path d="M162.655 428.903C162.609 440.17 163.527 401.019 164.695 403.013C173.528 418.095 213.244 439.78 269.352 378.398C340.259 300.825 440.434 225.372 511.364 196.109C558.387 176.71 568.543 168.7 532.881 179.138C496.836 189.688 415.36 232.725 367.515 266.487C345.752 281.844 296.209 326.561 257.42 365.858C218.631 405.154 184.421 437.306 181.398 437.306C178.375 437.306 175.902 432.095 175.902 425.726C175.902 403.458 301.058 297.772 402.761 234.16C425.326 220.047 480.367 190.223 525.075 167.886C569.782 145.549 605.217 126.127 603.819 124.727C598.779 119.68 534.34 144.341 478.249 172.783C378.984 223.117 285.95 289.516 204.314 368.296C165.014 406.22 162.733 409.538 162.655 428.903Z" fill="#4D6960"/>
<path d="M422.068 307.409C371.932 330.912 358.149 339.677 361.864 345.695C366.197 352.715 367.299 352.328 429.323 322.016C489.545 292.584 521.359 280.528 557.581 273.413L578.939 269.217L557.121 268.688C527.836 267.977 472.09 283.96 422.068 307.409Z" fill="#4D6960"/>
<path d="M355.594 324.417C350.435 321.224 330.359 334.357 330.359 340.924C330.359 343.432 333.28 345.483 336.851 345.483C345.469 345.483 361.152 327.856 355.594 324.417Z" fill="#4D6960"/>
<path d="M276.812 268.401C271.602 271.192 268.45 275.275 269.807 277.473C273.329 283.178 302.703 276.32 305.06 269.242C307.493 261.935 289.859 261.41 276.812 268.401Z" fill="#4D6960"/>
<path d="M571.258 221.61C552.861 225.294 512.267 245.405 495.145 259.316C488.137 265.01 485.661 268.58 489.643 267.25C493.625 265.919 522.948 255.933 554.805 245.059C586.662 234.185 618.844 223.982 626.321 222.387C635.783 220.367 639.435 216.967 638.334 211.2C636.108 199.531 557.218 195.866 557.218 207.432C557.218 212.992 560.705 214.058 571.699 211.856C580.065 210.181 586.179 210.997 586.179 213.789C586.179 216.447 579.464 219.967 571.258 221.61Z" fill="#4D6960"/>
<path d="M229.033 239.23C231.709 244.236 238.708 251.705 244.588 255.829C256.606 264.257 261.131 265.081 264.594 259.47C267.954 254.027 262.161 246.385 249.69 239.811C232.835 230.927 241.549 220.815 274.97 210.48C291.739 205.294 316.12 195.642 329.149 189.031L352.838 177.012L341.698 199.044C331.167 219.871 330.584 229.496 339.854 229.496C342.109 229.496 351.875 215.067 361.557 197.431C387.457 150.252 378.598 139.472 337.017 167.569C313.086 183.74 259.408 205.332 243.138 205.332C230.918 205.332 222.162 226.375 229.033 239.23Z" fill="#4D6960"/>
<path d="M645.893 159.684C629.243 171.58 614.297 183.456 612.681 186.074C607.172 194.999 615.657 190.832 675.581 155.183C708.54 135.574 757.534 110.225 784.456 98.8509C822.551 82.7558 835.423 74.8553 842.51 63.2184C852.102 47.4683 855.078 23.8284 846.826 28.9351C844.171 30.5778 841.999 35.9497 841.999 40.8727C841.999 52.4657 817.384 73.0295 786.66 87.1031C693.55 129.755 672.831 140.437 645.893 159.684Z" fill="#4D6960"/>
<path d="M426.083 147.163C417.858 160.411 412.5 174.421 414.082 178.547C418.814 190.895 423.555 187.212 444.998 154.53C456.282 137.331 473.089 118.347 482.346 112.343C513.106 92.3933 501.039 80.6461 463.993 94.4759C440.777 103.142 385.491 141.323 389.845 145.683C391.111 146.951 403.126 142.418 416.544 135.61L440.941 123.232L426.083 147.163Z" fill="#4D6960"/>
<path d="M584.139 82.652C555.456 104.281 547.228 116.393 555.554 124.73C557.293 126.472 563.267 123.356 568.828 117.806C574.389 112.256 594.686 96.9097 613.933 83.7025C647.232 60.8531 656.871 46.503 644.191 38.6568C629.89 29.8071 531.41 62.8426 520.786 80.0534C518.365 83.9759 520.299 83.9441 527.774 79.9385C539.856 73.4642 611.08 54.6722 613.678 57.2732C614.65 58.2473 601.358 69.6677 584.139 82.652Z" fill="#4D6960"/>
<path d="M729.081 66.4984C725.926 63.3396 629.62 100.319 629.62 104.69C629.62 106.882 631.249 108.68 633.24 108.684C639.76 108.699 731.082 68.5017 729.081 66.4984Z" fill="#4D6960"/>
<path d="M664.614 8.53842C655.987 13.248 648.927 19.2392 648.927 21.8522C648.927 24.8392 659.232 25.2417 676.682 22.9363C691.946 20.9195 725.842 19.2695 752.005 19.2695H799.574L778.552 10.0149C749.769 -2.65643 686.622 -3.47471 664.614 8.53842Z" fill="#4D6960"/>
<path d="M384.053 696.401C365.394 684.033 360.389 682.92 333.235 685.103C273.972 689.866 219.248 660.93 211.74 620.863C201.903 568.362 273.439 493.026 333.129 493.026C358.316 493.026 367.973 502.52 360.188 519.627C355.257 530.465 357.043 533.554 381.763 556.938C396.586 570.96 410.748 587.772 413.235 594.298C419.78 611.48 413.363 640.972 399.486 657.485L387.463 671.791L398.076 688.985C403.913 698.441 407.803 707.065 406.72 708.149C405.637 709.234 395.437 703.947 384.053 696.401ZM337.705 644.051C330.415 625.594 329.295 604.038 335.253 596.851C340.756 590.212 342.321 590.277 350.264 597.473C355.141 601.892 360.519 612.915 362.215 621.969C365.394 638.932 371.871 640.817 380.409 627.264C386.019 618.36 374.485 587.584 356.031 562.216C349.875 553.755 344.839 543.357 344.839 539.109C344.839 526.87 331.755 525.009 308.427 533.929C284.624 543.031 244.98 579.588 240.791 596.298C233.12 626.9 266.673 652.203 315.188 652.403C337.89 652.496 340.638 651.477 337.705 644.051ZM448.281 684.832L434.135 672.622L434.509 600.947C434.714 561.526 436.376 523.325 438.202 516.056C444.44 491.222 483.623 492.808 481.368 517.803C480.799 524.111 477.232 554.282 473.443 584.85C469.653 615.417 467.658 642.262 469.009 644.505C470.36 646.748 480.443 647.171 491.415 645.446C542.759 637.37 570.683 637.236 585.666 644.994C602.313 653.613 602.632 654.286 595.967 666.756C589.552 678.757 580.025 682.023 537.911 686.657C518 688.847 492.871 692.08 482.068 693.841C465.376 696.561 460.302 695.209 448.281 684.832ZM840.782 689.298C818.294 681.027 788.904 659.013 788.904 650.438C788.904 646.912 791.897 641.54 795.555 638.5C799.213 635.46 803.176 621.258 804.362 606.94C805.548 592.622 810.207 575.27 814.716 568.38C821.636 557.806 826.493 555.853 845.863 555.853C858.485 555.853 879.157 563.108 879.157 563.108C907.432 582.937 891.614 645.656 855.03 658.774C842.128 663.401 858.194 668.548 887.658 669.228C923.797 670.061 929.341 673.037 913.613 683.159C896.66 694.069 861.756 697.011 840.782 689.298ZM853.654 621.046C859.718 611.781 860.379 606.643 856.453 599.299C853.626 594.01 849.294 589.682 846.826 589.682C840.209 589.682 832.345 606.57 832.345 620.778C832.345 636.752 843.286 636.89 853.654 621.046ZM42.7532 679.633C24.0514 670.914 15.699 663.371 7.67064 647.949C-5.10032 623.417 -1.292 613.563 14.4058 630.522C24.8791 641.837 29.1082 642.843 66.2085 642.843C107.292 642.843 146.32 633.491 156.503 621.205C173.949 600.159 134.777 566.272 72.6456 548.662C30.6805 536.767 26.9213 526.101 58.5402 508.637C84.3688 494.372 137.475 491.218 149.522 503.234C156.71 510.405 154.97 511.293 127.675 514.385C111.364 516.233 93.2779 519.585 87.485 521.834C78.0844 525.484 79.8056 527.198 103.5 537.784C118.101 544.307 137.649 552.134 146.941 555.176C184.145 567.359 201.847 594.919 196.387 632.161C193.244 653.607 177.22 668.843 145.191 680.842C108.519 694.58 73.9374 694.172 42.7532 679.633ZM736.688 681.358C719.769 671.03 705.253 644.184 699.411 612.414C696.187 594.884 695.637 594.429 687.053 602.207C667.42 619.996 653.944 584.659 673.061 565.518C678.37 560.202 685.8 555.853 689.571 555.853C696.551 555.853 699.192 547.25 704.821 506.182C706.933 490.771 711.007 481.473 717.071 478.223C729.256 471.694 746.823 480.921 743.511 492.112C742.182 496.602 739.704 506.8 738.003 514.774C736.303 522.748 733.942 532.887 732.757 537.304C730.479 545.792 735.522 547.494 780.551 553.436C807.403 556.979 806.919 562.944 779.424 567.346C747.923 572.39 726.156 584.909 726.156 597.982C726.156 618.467 738.784 640.159 761.613 658.889C773.968 669.026 784.077 680.436 784.077 684.245C784.077 694.636 755.596 692.901 736.688 681.358ZM622.362 666.034C611.343 639.086 606.817 577.975 615.099 567.984C631.267 548.479 649.383 572.853 652.559 618.386C656.749 678.457 638.935 706.567 622.362 666.034ZM607.362 524.779C602.556 512.239 609.292 501.875 621.152 503.561C629.129 504.695 632.033 508.333 632.033 517.19C632.033 526.048 629.129 529.685 621.152 530.82C614.624 531.747 609.106 529.33 607.362 524.779Z" fill="#4D6960"/>
</svg>
